public/metomic.svg

<svg width="98" height="16" viewBox="0 0 98 16" fill="none" xmlns="http://www.w3.org/2000/svg">
<path d="M9.70271 9.59954C9.70271 8.09238 10.4252 7.20473 11.8083 7.20473C13.109 7.20473 13.5425 8.1338 13.5425 9.33116V15.7514H16.4739V9.00086C16.4739 6.4822 15.1528 4.68616 12.5516 4.68616C11.0032 4.68616 9.90918 5.16098 8.95949 6.21382C8.34032 5.26419 7.28737 4.68616 5.82163 4.68616C4.27332 4.68616 3.19984 5.32613 2.70437 6.25511V4.93389H0V15.7514H2.93146V9.53763C2.93146 8.09238 3.67464 7.20473 5.03715 7.20473C6.33775 7.20473 6.77125 8.1338 6.77125 9.33116V15.7514H9.70271V9.59954Z" fill="#58466D"/>
<path d="M29.1257 11.1891C29.1257 11.1891 29.1669 10.7969 29.1669 10.3221C29.1669 7.12217 26.9993 4.68616 23.7994 4.68616C20.5996 4.68616 18.3701 7.12217 18.3701 10.3221C18.3701 13.6458 20.6203 15.9991 23.8202 15.9991C26.318 15.9991 28.2998 14.4921 28.9399 12.3038H25.9877C25.6367 13.0883 24.7903 13.4805 23.9026 13.4805C22.437 13.4805 21.4874 12.6754 21.2809 11.1891H29.1257ZM23.7787 7.03958C25.1414 7.03958 26.0289 7.86535 26.2354 9.08327H21.3221C21.57 7.84471 22.437 7.03958 23.7787 7.03958Z" fill="#58466D"/>
<path d="M36.226 13.1503C36.226 13.1503 35.9371 13.2536 35.5447 13.2536C34.781 13.2536 34.4507 12.9233 34.4507 12.2006V7.24613H36.2467V4.93399H34.4507V2.25024H31.5192V4.93399H30.0535V7.24613H31.5192V12.5104C31.5192 14.5953 32.4689 15.8134 34.8429 15.8134C35.7307 15.8134 36.226 15.6896 36.226 15.6896V13.1503Z" fill="#58466D"/>
<path d="M42.8166 15.9991C46.2849 15.9991 48.4936 13.4186 48.4936 10.3426C48.4936 7.26667 46.2849 4.68616 42.8166 4.68616C39.3484 4.68616 37.1394 7.26667 37.1394 10.3426C37.1394 13.4186 39.3484 15.9991 42.8166 15.9991ZM40.0709 10.3426C40.0709 8.40218 41.2682 7.26667 42.8166 7.26667C44.365 7.26667 45.5624 8.40218 45.5624 10.3426C45.5624 12.2831 44.365 13.4186 42.8166 13.4186C41.2682 13.4186 40.0709 12.2831 40.0709 10.3426Z" fill="#58466D"/>
<path d="M60.2042 9.59954C60.2042 8.09238 60.9269 7.20473 62.31 7.20473C63.6105 7.20473 64.0441 8.1338 64.0441 9.33116V15.7514H66.9756V9.00086C66.9756 6.4822 65.6544 4.68616 63.0532 4.68616C61.5049 4.68616 60.4106 5.16098 59.4612 6.21382C58.8418 5.26419 57.789 4.68616 56.3232 4.68616C54.7749 4.68616 53.7013 5.32613 53.206 6.25511V4.93389H50.5015V15.7514H53.4329V9.53763C53.4329 8.09238 54.1762 7.20473 55.5388 7.20473C56.8393 7.20473 57.2729 8.1338 57.2729 9.33116V15.7514H60.2042V9.59954Z" fill="#58466D"/>
<path d="M71.0187 3.53014C72.0508 3.53014 72.7941 2.80761 72.7941 1.77539C72.7941 0.743182 72.0508 0 71.0187 0C69.9864 0 69.2434 0.743182 69.2434 1.77539C69.2434 2.80761 69.9864 3.53014 71.0187 3.53014ZM69.553 15.7514H72.4845V4.93395H69.553V15.7514Z" fill="#58466D"/>
<path d="M74.4963 10.3426C74.4963 13.5631 76.7877 15.9991 79.9257 15.9991C83.2908 15.9991 84.8804 13.625 85.0868 11.7878H82.0727C81.8455 12.7168 80.9785 13.3979 79.9049 13.3979C78.3361 13.3979 77.4278 12.1593 77.4278 10.3426C77.4278 8.52602 78.3361 7.28732 79.9049 7.28732C80.9785 7.28732 81.8455 7.96854 82.0727 8.89752H85.0868C84.8804 7.06023 83.2908 4.68616 79.9257 4.68616C76.7877 4.68616 74.4963 7.12217 74.4963 10.3426Z" fill="#58466D"/>
<path d="M98.0001 12.879H87.678V15.6453H98.0001V12.879Z" fill="#58466D"/>
</svg>

<svg width="98" height="16" fill="none" xmlns="http://www.w3.org/2000/svg"><path d="M9.703 9.6c0-1.508.722-2.395 2.105-2.395 1.301 0 1.735.929 1.735 2.126v6.42h2.93v-6.75c0-2.519-1.32-4.315-3.921-4.315-1.549 0-2.643.475-3.593 1.528-.619-.95-1.672-1.528-3.137-1.528-1.549 0-2.622.64-3.118 1.57V4.933H0V15.75h2.931V9.538c0-1.446.744-2.333 2.106-2.333 1.3 0 1.734.929 1.734 2.126v6.42h2.932V9.6zm19.423 1.59s.04-.393.04-.868c0-3.2-2.167-5.636-5.367-5.636s-5.429 2.436-5.429 5.636c0 3.324 2.25 5.677 5.45 5.677 2.498 0 4.48-1.507 5.12-3.695h-2.952c-.351.784-1.198 1.176-2.085 1.176-1.466 0-2.416-.805-2.622-2.29h7.845zm-5.347-4.15c1.362 0 2.25.825 2.456 2.043h-4.913c.248-1.238 1.115-2.043 2.457-2.043zm12.447 6.11s-.289.104-.681.104c-.764 0-1.094-.33-1.094-1.053V7.246h1.796V4.934H34.45V2.25h-2.932v2.684h-1.465v2.312h1.465v5.264c0 2.085.95 3.303 3.324 3.303.888 0 1.383-.123 1.383-.123v-2.54zM42.817 16c3.468 0 5.677-2.581 5.677-5.657s-2.21-5.657-5.677-5.657c-3.469 0-5.678 2.58-5.678 5.657 0 3.076 2.21 5.656 5.678 5.656zm-2.746-5.657c0-1.94 1.197-3.076 2.746-3.076 1.548 0 2.745 1.135 2.745 3.076 0 1.94-1.197 3.076-2.745 3.076-1.549 0-2.746-1.136-2.746-3.076zM60.204 9.6c0-1.508.723-2.395 2.106-2.395 1.3 0 1.734.929 1.734 2.126v6.42h2.932v-6.75c0-2.519-1.322-4.315-3.923-4.315-1.548 0-2.642.475-3.592 1.528-.62-.95-1.672-1.528-3.138-1.528-1.548 0-2.622.64-3.117 1.57V4.933h-2.705V15.75h2.932V9.538c0-1.446.743-2.333 2.106-2.333 1.3 0 1.734.929 1.734 2.126v6.42h2.931V9.6zm10.815-6.07c1.032 0 1.775-.722 1.775-1.755C72.794.743 72.051 0 71.02 0c-1.033 0-1.776.743-1.776 1.775 0 1.033.743 1.755 1.776 1.755zm-1.466 12.221h2.931V4.934h-2.931V15.75zm4.943-5.408c0 3.22 2.292 5.656 5.43 5.656 3.365 0 4.954-2.374 5.16-4.211h-3.013c-.227.929-1.094 1.61-2.168 1.61-1.569 0-2.477-1.239-2.477-3.055 0-1.817.908-3.056 2.477-3.056 1.073 0 1.94.682 2.168 1.61h3.014c-.207-1.837-1.796-4.21-5.161-4.21-3.138 0-5.43 2.435-5.43 5.656zM98 12.879H87.678v2.766H98V12.88z" fill="#58466D"/></svg>
